src/Resource_Files/fluent/format-justify-right.svg

<svg clip-rule="evenodd" fill-rule="evenodd" stroke-linejoin="round" stroke-miterlimit="2" viewBox="0 0 16 16" xmlns="http://www.w3.org/2000/svg"><path d="m17.5 14c.276 0 .5.224.5.5 0 .245-.177.45-.41.492l-.09.008h-8c-.276 0-.5-.224-.5-.5 0-.245.177-.45.41-.492l.09-.008zm0-5c.276 0 .5.224.5.5s-.224.5-.5.5h-15c-.276 0-.5-.224-.5-.5s.224-.5.5-.5zm0-5c.276 0 .5.224.5.5s-.224.5-.5.5h-11c-.276 0-.5-.224-.5-.5s.224-.5.5-.5z" fill="#1abc9c" fill-rule="nonzero" transform="translate(-2 -2)"/></svg>

<?xml version="1.0" encoding="UTF-8" standalone="no"?>
<!DOCTYPE svg PUBLIC "-//W3C//DTD SVG 1.1//EN" "http://www.w3.org/Graphics/SVG/1.1/DTD/svg11.dtd">
<svg width="100%" height="100%" viewBox="0 0 16 16" version="1.1" xmlns="http://www.w3.org/2000/svg" xmlns:xlink="http://www.w3.org/1999/xlink" xml:space="preserve" xmlns:serif="http://www.serif.com/" style="fill-rule:evenodd;clip-rule:evenodd;stroke-linejoin:round;stroke-miterlimit:2;">
    <g transform="matrix(1,0,0,1,-2,-2)">
        <path d="M17.5,14C17.776,14 18,14.224 18,14.5C18,14.745 17.823,14.95 17.59,14.992L17.5,15L9.5,15C9.224,15 9,14.776 9,14.5C9,14.255 9.177,14.05 9.41,14.008L9.5,14L17.5,14ZM17.5,9C17.776,9 18,9.224 18,9.5C18,9.776 17.776,10 17.5,10L2.5,10C2.224,10 2,9.776 2,9.5C2,9.224 2.224,9 2.5,9L17.5,9ZM17.5,4C17.776,4 18,4.224 18,4.5C18,4.776 17.776,5 17.5,5L6.5,5C6.224,5 6,4.776 6,4.5C6,4.224 6.224,4 6.5,4L17.5,4Z" style="fill:rgb(26,188,156);fill-rule:nonzero;"/>
    </g>
</svg>
